icons/Car.svg

<svg width="24" height="24" viewBox="0 0 24 24" fill="none" xmlns="http://www.w3.org/2000/svg">
<path fill-rule="evenodd" clip-rule="evenodd" d="M18.75 15C18.5028 15 18.2611 14.9267 18.0555 14.7893C17.85 14.652 17.6898 14.4568 17.5951 14.2284C17.5005 13.9999 17.4758 13.7486 17.524 13.5061C17.5723 13.2637 17.6913 13.0409 17.8661 12.8661C18.0409 12.6913 18.2637 12.5722 18.5061 12.524C18.7486 12.4758 18.9999 12.5005 19.2284 12.5952C19.4568 12.6898 19.652 12.85 19.7893 13.0555C19.9267 13.2611 20 13.5028 20 13.75C20 14.0815 19.8683 14.3995 19.6339 14.6339C19.3995 14.8683 19.0815 15 18.75 15ZM5.25 15C5.00277 15 4.7611 14.9267 4.55554 14.7893C4.34998 14.652 4.18976 14.4568 4.09515 14.2284C4.00054 13.9999 3.97579 13.7486 4.02402 13.5061C4.07225 13.2637 4.1913 13.0409 4.36612 12.8661C4.54093 12.6913 4.76366 12.5722 5.00614 12.524C5.24861 12.4758 5.49995 12.5005 5.72835 12.5952C5.95676 12.6898 6.15199 12.85 6.28934 13.0555C6.42669 13.2611 6.5 13.5028 6.5 13.75C6.5 14.0815 6.3683 14.3995 6.13388 14.6339C5.89946 14.8683 5.58152 15 5.25 15ZM6.114 6.578C6.23369 6.26149 6.44682 5.98887 6.72509 5.79633C7.00336 5.60379 7.33361 5.50044 7.672 5.5H16.328C16.6659 5.50013 16.9958 5.60303 17.2739 5.79502C17.552 5.98702 17.7651 6.25905 17.885 6.575L19.35 10.5H4.663L6.114 6.578ZM23 13.246C22.9988 12.665 22.8783 12.0905 22.646 11.558L19.771 4.858C19.5449 4.30879 19.1609 3.83905 18.6676 3.50828C18.1743 3.17752 17.5939 3.00062 17 3H7C6.40602 3.00034 5.82551 3.177 5.33203 3.50759C4.83855 3.83818 4.45431 4.30782 4.228 4.857L1.353 11.562C1.12104 12.0932 1.00088 12.6664 1 13.246V20C1 20.2652 1.10536 20.5196 1.29289 20.7071C1.48043 20.8946 1.73478 21 2 21H4C4.26522 21 4.51957 20.8946 4.70711 20.7071C4.89464 20.5196 5 20.2652 5 20V17.475C5.084 17.475 5.165 17.5 5.25 17.5H18.75C18.835 17.5 18.916 17.48 19 17.475V20C19 20.2652 19.1054 20.5196 19.2929 20.7071C19.4804 20.8946 19.7348 21 20 21H22C22.2652 21 22.5196 20.8946 22.7071 20.7071C22.8946 20.5196 23 20.2652 23 20V13.246Z" fill="black"/>
</svg>

<svg xmlns="http://www.w3.org/2000/svg" viewBox="0 0 24 24">
  <path d="M18.75 15a1.25 1.25 0 110-2.5 1.25 1.25 0 010 2.5zm-13.5 0a1.25 1.25 0 110-2.5 1.25 1.25 0 010 2.5zm.864-8.422A1.668 1.668 0 017.672 5.5h8.656a1.666 1.666 0 011.557 1.075L19.35 10.5H4.663l1.451-3.922zM23 13.246a4.243 4.243 0 00-.354-1.688l-2.875-6.7A3 3 0 0017 3H7a3 3 0 00-2.772 1.857l-2.875 6.705A4.224 4.224 0 001 13.246V20a1 1 0 001 1h2a1 1 0 001-1v-2.525c.084 0 .165.025.25.025h13.5c.085 0 .166-.02.25-.025V20a1 1 0 001 1h2a1 1 0 001-1v-6.754z"/>
</svg>
